X: 7731
T: Colonel McBain
R: reel
M: 4/4
K: Edorian
EF|GEBE GEE2|FDAD FDEF|GEBE GEEB|AEFD E2(3EEF|
GEBE GEEG|FDAD FD (3DEF|G2GG GBdB|AEFD E2EF|
GEBE GEEA|FDAD FdAF|GEBE GEEB|AEFD E2(3EEF|
GEBE GEEB|ADFD FD (3DEF|G2GG GBdB|AEFD E2||
EF|GG (3GGG GBdB|(3ABA GA FGAd|BeeB efge|fedf eABd|
efed ABBd|ABAG FdAF|G2GF GBdB|AEFD E2EF|
GG (3GGG GBdB|(3ABA GA FGAd|Beed efga|fedf efgf|
(3efe de B2dB|ABGA FdAF|G2GG GBdB|AEFD E2||

